svg/u1f313.svg

<svg viewBox="0 0 128 128" xmlns="http://www.w3.org/2000/svg">
  <g>
    <path d="M4,64c0,33.14,26.86,60,60,60c0,0,2.9-21.47,2.9-60S64,4,64,4C30.86,4,4,30.86,4,64z" fill="#22404C"/>
    <path d="M124,64c0-33.14-26.86-60-60-60v60v60C97.14,124,124,97.14,124,64z" fill="#FCE5AC"/>
    <path d="M62.34,8.58c-0.02,1.36-3.4,2.23-7.38,2.6c-3.98,0.37-7.3,0.11-7.65-1.2 c-0.35-1.31,2.69-3.26,7.03-3.68S62.35,7.22,62.34,8.58z" fill="#1B2E35"/>
    <path d="M119.37,59.47c-0.01-0.4,0.01-0.8,0.08-1.21c1.22-7.23,1.8-14-6.32-18.14 c-0.89-0.46-1.87-0.83-2.55-1.57c-1.25-1.35-1.14-3.41-1.46-5.22c-0.97-5.54-7.24-9.51-12.66-8.01c-1.78,0.49-3.64,1.47-5.35,0.8 c-1.38-0.54-2.16-1.97-2.94-3.23c-2.21-3.58-5.6-6.76-9.77-7.34s-8.91,2.3-9.17,6.5c-0.11,1.83,0.2,3.99,1.6,5.18 c5.88,5.01,9.52,1.32,12.25,3.91c3.17,3.01-3.41,3.82-2.32,11.47c0.55,3.82,4.34,7.4,8.19,7.08c1.71-0.15,4.31-0.24,5.26,1.19 c0.75,1.12,0.56,2.19,0.56,4.03c0,4.54,0.5,8.11,4.92,9.14c0.57,0.13,1.19,0.2,1.72-0.03c1.17-0.51,1.16-2.08,1.08-3.36 c-0.35-5.62-4.31-6.76-5.03-9.85c-0.91-3.94,4.47-9.27,8.87-7.78c3.5,1.19,0.65,5.25,3.21,9.94c1.69,3.11,5.01,4.54,6.24,7.08 s0.09,4.3,0.69,5.91c0.93,2.52,2.41,2.56,3.24,1.67c0.91-0.97,0.61-2.96,0.39-4.12C119.86,62.16,119.41,60.84,119.37,59.47z" fill="#F1C688"/>
    <path d="M24.24,102.04c0.11-0.16,0.99-0.39,2.01,0.57c1.02,0.95,4.03,3.79,5.23,4.88 c1.2,1.09,0.03,2.01-0.97,1.83C25.71,108.48,23.09,103.71,24.24,102.04z" fill="#1B2E35"/>
    <path d="M42.04,114.42c0.05-0.19,0.79-0.71,2.08-0.19s5.12,2.11,6.63,2.7c1.51,0.59,0.74,1.86-0.25,2.06 C45.7,119.91,41.56,116.39,42.04,114.42z" fill="#1B2E35"/>
    <path d="M48.3,110.84c0.6,0.47,1.21,1.21,0.93,1.91c-0.26,0.64-1.08,0.81-1.77,0.83 c-2.28,0.07-4.56-0.51-6.55-1.6c-1.4-0.77-5.07-3.14-4.55-5.13C37.1,104.03,46.76,109.65,48.3,110.84z" fill="#1B2E35"/>
    <path d="M104.3,96.51c-1.34,1.59-4.84,5.56-6.01,6.92c-1.18,1.35-0.8,2.45-0.58,2.57 c2.32,1.33,8.41-2.29,9.1-8.4C106.96,96.33,105.63,94.92,104.3,96.51z" fill="#F1C688"/>
    <path d="M111.64,85.22c-0.62,1.56-2.29,5.51-2.85,6.84c-0.56,1.34,0.01,2.08,0.21,2.12 c2.12,0.43,5.87-3.9,4.84-8.77C113.64,84.41,112.26,83.66,111.64,85.22z" fill="#F1C688"/>
    <path d="M77.82,8.69c-1.01,0.24-1.77,1.64-0.22,2.22c1.55,0.58,5.47,2.16,6.8,2.68 c1.33,0.52,2.08-0.07,2.12-0.27C86.97,11.18,82.69,7.54,77.82,8.69z" fill="#F1C688"/>
    <path d="M56.47,15.47c-9.5-1.73-12.9,3.96-15.81,5.2c-2.32,0.98-3.92-0.73-7.5,1.46 c-4.94,3.01-3.07,5.19-3.52,7.74c-0.46,2.55-3.19,3.64-5.19,3.83c-2.37,0.23-2.56-1.21-1.42-2.94c0.63-0.95,1.3-1.54,1.62-2.66 c0.37-1.3,0.17-2.7,0.89-3.9c1.13-1.88,3.77-2.14,5.4-3.6c1.18-1.06,1.75-2.69,3.01-3.66c1.26-0.97,2.9-1.32,4.47-1.6 c3.2-0.57,5.9-3.09,4.45-3.17c-1.46-0.08-3.89-0.55-5.93,0.95c-2.27,1.66-5.32,2.18-7.73,3.55c-2.7,1.55-4.12,4.92-4.94,5.83 c-0.82,0.91-3.46,1-5.28,2.88C15.19,29.27,8.85,43.4,8.85,48.69c0,4.93,2.19,9.75,7.08,11.09c0.74,0.2,1.53,0.43,2.01,1.03 c1.1,1.37-1.65,5.49-2.07,7.15c-1.07,4.3,0.1,7.61,2,9.98c4.11,5.11,8.21,4.42,12.33,1.89c1-0.62,1.86-1.49,2.97-1.9 c2.34-0.87,2.4,0.63,2.63,2.38c1.08,8.06,4.43,10.14,6.78,11.05c4.89,1.89,10.9,0.09,14.08-4.08s3.53-10.4,0.66-14.79 c-4.38-6.7-13.03-7.07-14.78-10.82c-1.97-4.22,3.48-4.81,5.86-8.47c2.12-3.25,2.56-7.72,0.54-11.08c-1-1.66-2.66-3.32-2.24-5.21 c0.47-2.11,6.48-5.42,10.95-9.26C60.83,24.93,68.28,17.62,56.47,15.47z M26.01,48.86c-0.34,0.65-0.85,1.3-1.58,1.41 c-0.69,0.1-1.35-0.34-1.78-0.89c-0.68-0.89-0.88-2.14-0.45-3.17c0.51-1.24,2.25-2.23,3.6-1.65c0.73,0.31,0.95,1.05,0.91,1.86 C26.66,47.31,26.31,48.28,26.01,48.86z M41.51,51.8c-0.14,0.79-0.39,1.55-0.57,2.07c-0.49,1.45-1.2,2.97-2.57,3.64 c-0.6,0.3-1.27,0.4-1.93,0.51c-1.37,0.21-3.08,0.28-3.79-0.91c-0.26-0.43-0.32-0.95-0.37-1.45c-0.23-2.16-0.34-4.67,1.25-6.14 c1.14-1.06,2.42-0.93,3.84-0.94c0.8,0,2.73-0.26,3.41,0.18C41.69,49.35,41.72,50.61,41.51,51.8z" fill="#1B2E35"/>
  </g>
</svg>

<svg viewBox="0 0 128 128" xmlns="http://www.w3.org/2000/svg">
  <defs/>
  <path d="M4,64 C4,97.14 30.86,124 64,124 C64,124 66.9,102.53 66.9,64 C66.9,25.47 64,4 64,4 C30.86,4 4,30.86 4,64 Z" fill="#22404C"/>
  <path d="M124,64 C124,30.86 97.14,4 64,4 L64,64 L64,124 C97.14,124 124,97.14 124,64 Z" fill="#FCE5AC"/>
  <path d="M62.34,8.58 C62.32,9.94 58.94,10.81 54.96,11.18 C50.98,11.55 47.66,11.29 47.31,9.98 C46.96,8.67 50,6.72 54.34,6.3 C58.68,5.88 62.35,7.22 62.34,8.58 Z" fill="#1B2E35"/>
  <path d="M119.37,59.47 C119.36,59.07 119.38,58.67 119.45,58.26 C120.67,51.03 121.25,44.26 113.13,40.12 C112.24,39.66 111.26,39.29 110.58,38.55 C109.33,37.2 109.44,35.14 109.12,33.33 C108.15,27.79 101.88,23.82 96.46,25.32 C94.68,25.81 92.82,26.79 91.11,26.12 C89.73,25.58 88.95,24.15 88.17,22.89 C85.96,19.31 82.57,16.13 78.4,15.55 C74.23,14.97 69.49,17.85 69.23,22.05 C69.12,23.88 69.43,26.04 70.83,27.23 C76.71,32.24 80.35,28.55 83.08,31.14 C86.25,34.15 79.67,34.96 80.76,42.61 C81.31,46.43 85.1,50.01 88.95,49.69 C90.66,49.54 93.26,49.45 94.21,50.88 C94.96,52 94.77,53.07 94.77,54.91 C94.77,59.45 95.27,63.02 99.69,64.05 C100.26,64.18 100.88,64.25 101.41,64.02 C102.58,63.51 102.57,61.94 102.49,60.66 C102.14,55.04 98.18,53.9 97.46,50.81 C96.55,46.87 101.93,41.54 106.33,43.03 C109.83,44.22 106.98,48.28 109.54,52.97 C111.23,56.08 114.55,57.51 115.78,60.05 C117.01,62.59 115.87,64.35 116.47,65.96 C117.4,68.48 118.88,68.52 119.71,67.63 C120.62,66.66 120.32,64.67 120.1,63.51 C119.86,62.16 119.41,60.84 119.37,59.47 Z" fill="#F1C688"/>
  <path d="M24.24,102.04 C24.35,101.88 25.23,101.65 26.25,102.61 C27.27,103.56 30.28,106.4 31.48,107.49 C32.68,108.58 31.51,109.5 30.51,109.32 C25.71,108.48 23.09,103.71 24.24,102.04 Z" fill="#1B2E35"/>
  <path d="M42.04,114.42 C42.09,114.23 42.83,113.71 44.12,114.23 C45.41,114.75 49.24,116.34 50.75,116.93 C52.26,117.52 51.49,118.79 50.5,118.99 C45.7,119.91 41.56,116.39 42.04,114.42 Z" fill="#1B2E35"/>
  <path d="M48.3,110.84 C48.9,111.31 49.51,112.05 49.23,112.75 C48.97,113.39 48.15,113.56 47.46,113.58 C45.18,113.65 42.9,113.07 40.91,111.98 C39.51,111.21 35.84,108.84 36.36,106.85 C37.1,104.03 46.76,109.65 48.3,110.84 Z" fill="#1B2E35"/>
  <path d="M104.3,96.51 C102.96,98.1 99.46,102.07 98.29,103.43 C97.11,104.78 97.49,105.88 97.71,106 C100.03,107.33 106.12,103.71 106.81,97.6 C106.96,96.33 105.63,94.92 104.3,96.51 Z" fill="#F1C688"/>
  <path d="M111.64,85.22 C111.02,86.78 109.35,90.73 108.79,92.06 C108.23,93.4 108.8,94.14 109,94.18 C111.12,94.61 114.87,90.28 113.84,85.41 C113.64,84.41 112.26,83.66 111.64,85.22 Z" fill="#F1C688"/>
  <path d="M77.82,8.69 C76.81,8.93 76.05,10.33 77.6,10.91 C79.15,11.49 83.07,13.07 84.4,13.59 C85.73,14.11 86.48,13.52 86.52,13.32 C86.97,11.18 82.69,7.54 77.82,8.69 Z" fill="#F1C688"/>
  <path d="M56.47,15.47 C46.97,13.74 43.57,19.43 40.66,20.67 C38.34,21.65 36.74,19.94 33.16,22.13 C28.22,25.14 30.09,27.32 29.64,29.87 C29.18,32.42 26.45,33.51 24.45,33.7 C22.08,33.93 21.89,32.49 23.03,30.76 C23.66,29.81 24.33,29.22 24.65,28.1 C25.02,26.8 24.82,25.4 25.54,24.2 C26.67,22.32 29.31,22.06 30.94,20.6 C32.12,19.54 32.69,17.91 33.95,16.94 C35.21,15.97 36.85,15.62 38.42,15.34 C41.62,14.77 44.32,12.25 42.87,12.17 C41.41,12.09 38.98,11.62 36.94,13.12 C34.67,14.78 31.62,15.3 29.21,16.67 C26.51,18.22 25.09,21.59 24.27,22.5 C23.45,23.41 20.81,23.5 18.99,25.38 C15.19,29.27 8.85,43.4 8.85,48.69 C8.85,53.62 11.04,58.44 15.93,59.78 C16.67,59.98 17.46,60.21 17.94,60.81 C19.04,62.18 16.29,66.3 15.87,67.96 C14.8,72.26 15.97,75.57 17.87,77.94 C21.98,83.05 26.08,82.36 30.2,79.83 C31.2,79.21 32.06,78.34 33.17,77.93 C35.51,77.06 35.57,78.56 35.8,80.31 C36.88,88.37 40.23,90.45 42.58,91.36 C47.47,93.25 53.48,91.45 56.66,87.28 C59.84,83.11 60.19,76.88 57.32,72.49 C52.94,65.79 44.29,65.42 42.54,61.67 C40.57,57.45 46.02,56.86 48.4,53.2 C50.52,49.95 50.96,45.48 48.94,42.12 C47.94,40.46 46.28,38.8 46.7,36.91 C47.17,34.8 53.18,31.49 57.65,27.65 C60.83,24.93 68.28,17.62 56.47,15.47 Z M26.01,48.86 C25.67,49.51 25.16,50.16 24.43,50.27 C23.74,50.37 23.08,49.93 22.65,49.38 C21.97,48.49 21.77,47.24 22.2,46.21 C22.71,44.97 24.45,43.98 25.8,44.56 C26.53,44.87 26.75,45.61 26.71,46.42 C26.66,47.31 26.31,48.28 26.01,48.86 Z M41.51,51.8 C41.37,52.59 41.12,53.35 40.94,53.87 C40.45,55.32 39.74,56.84 38.37,57.51 C37.77,57.81 37.1,57.91 36.44,58.02 C35.07,58.23 33.36,58.3 32.65,57.11 C32.39,56.68 32.33,56.16 32.28,55.66 C32.05,53.5 31.94,50.99 33.53,49.52 C34.67,48.46 35.95,48.59 37.37,48.58 C38.17,48.58 40.1,48.32 40.78,48.76 C41.69,49.35 41.72,50.61 41.51,51.8 Z" fill="#1B2E35"/>
</svg>
